X: 1
T:Dùthaich nan craobh
M:3/4
L:1/8
B:Campbell &amp; Campbell - The Kilberry Book of Ceol Meadhonach (1908, No. 13, p. 7)
F:http://tunearch.org/wiki/Land_of_the_Trees_(The)	 2022-05-03 151028 UT
K:D
e2|A2A2d2|B2A2 Bd|e2e2f2|e2e2 ef|
A2A2 GA|B2d2 de|f2 ed B2|A4:|
|:Bd|e2 f&gt;A Bd|B2A2 Bd|e2 fa f2 e/f/|e2d2 f&gt;A|
A2 GA BA|B2d2 de|f2 ed B2|A4:|]
T:Land of the Trees, The
T:Dùthaich nan craobh
M:3/4
L:1/8
B:Parlane &amp; Paisley - Choisir-chiuil/The Gaelic Choir
K:Ab
"Verse"
AB|c2e2f2|c2B2 cB|A2E2F2|C2E2 AG|
F2D2C2|E2F2 AB|cB A2 B2|c4||
"Chorus"
AG|F2E2c2|c2B2 ce|f2e2c2|B2c2AG|
F2D2C2|E2A2B2|cB A2G|F4||





